svgs/sharp-solid/clone.svg

<svg xmlns="http://www.w3.org/2000/svg" viewBox="0 0 512 512"><!--! Font Awesome Pro 6.6.0 by @fontawesome - https://fontawesome.com License - https://fontawesome.com/license (Commercial License) Copyright 2024 Fonticons, Inc. --><path d="M288 448L64 448l0-224 64 0 0-64-64 0L0 160l0 64L0 448l0 64 64 0 224 0 64 0 0-64 0-64-64 0 0 64zm224-96L512 0 160 0l0 352 352 0z"/></svg>

<svg xmlns="http://www.w3.org/2000/svg" viewBox="0 0 512 512"><!--! Font Awesome Pro 6.4.2 by @fontawesome - https://fontawesome.com License - https://fontawesome.com/license (Commercial License) Copyright 2023 Fonticons, Inc. --><path d="M288 448H64V224h64V160H64 0v64V448v64H64 288h64V448 384H288v64zm224-96V0H160V352H512z"/></svg>
